svgs/sharp-regular/folder-magnifying-glass.svg

<svg xmlns="http://www.w3.org/2000/svg" viewBox="0 0 512 512"><!--! Font Awesome Pro 6.6.0 by @fontawesome - https://fontawesome.com License - https://fontawesome.com/license (Commercial License) Copyright 2024 Fonticons, Inc. --><path d="M224 32l48 64 192 0 48 0 0 48 0 288 0 48-48 0L48 480 0 480l0-48L0 80 0 32l48 0 176 0zm48 112l-24 0-14.4-19.2L200 80 48 80l0 352 416 0 0-288-192 0zm64 128c0 17.8-4.9 34.5-13.3 48.9L361 359.2l17 17L344 410.1l-17-17-38.4-38.4C274.4 363.2 257.8 368 240 368c-53 0-96-43-96-96s43-96 96-96s96 43 96 96zm-96 48a48 48 0 1 0 0-96 48 48 0 1 0 0 96z"/></svg>

<svg xmlns="http://www.w3.org/2000/svg" viewBox="0 0 512 512"><!--! Font Awesome Pro 6.4.2 by @fontawesome - https://fontawesome.com License - https://fontawesome.com/license (Commercial License) Copyright 2023 Fonticons, Inc. --><path d="M224 32l48 64H464h48v48V432v48H464 48 0V432 80 32H48 224zm48 112H248l-14.4-19.2L200 80H48V432H464V144H272zm64 128c0 17.8-4.9 34.5-13.3 48.9L361 359.2l17 17L344 410.1l-17-17-38.4-38.4C274.4 363.2 257.8 368 240 368c-53 0-96-43-96-96s43-96 96-96s96 43 96 96zm-96 48a48 48 0 1 0 0-96 48 48 0 1 0 0 96z"/></svg>
